assets/img/braze_icons/cryptocurrency-02.svg

<svg fill="none" height="24" viewBox="0 0 24 24" width="24" xmlns="http://www.w3.org/2000/svg"><g fill="#801ed7"><path d="m8.05476 3.91074c.49639-.24211.70253-.84078.46043-1.33717-.24211-.49639-.84078-.70252-1.33717-.46042-2.08787 1.01832-3.79977 2.67149-4.89034 4.72255s-1.50382 4.3947-1.18052 6.6951c.07686.5469.58253.9279 1.12944.8511.54691-.0769.92795-.5825.85109-1.1295-.26451-1.8821.0736-3.79962.96589-5.47776.89228-1.67814 2.29292-3.03073 4.00118-3.8639z"/><path d="m15.4849 2.57357c.2421-.49639.8408-.70252 1.3372-.46042 2.0879 1.01832 3.7998 2.67149 4.8903 4.72255 1.0906 2.05106 1.5038 4.3947 1.1805 6.6951-.0768.5469-.5825.9279-1.1294.8511-.5469-.0769-.9279-.5825-.8511-1.1295.2645-1.8821-.0736-3.79962-.9659-5.47776s-2.2929-3.03073-4.0012-3.8639c-.4964-.24211-.7025-.84078-.4604-1.33717z"/><path d="m5.31312 19.5026c.32463-.4468.95-.5458 1.39681-.2212 1.53762 1.1171 3.38947 1.7188 5.29007 1.7188s3.7524-.6017 5.2901-1.7188c.4468-.3246 1.0721-.2256 1.3968.2212.3246.4468.2255 1.0722-.2213 1.3968-1.8793 1.3654-4.1426 2.1008-6.4656 2.1008-2.32298 0-4.58632-.7354-6.46564-2.1008-.44681-.3246-.54586-.95-.22124-1.3968z"/><path d="m12.9758 5.57587c-.1111-.09429-.2797-.21984-.5123-.29542-.3013-.09789-.6258-.09789-.927 0-.2327.07558-.4013.20113-.5123.29542-.0959.08138-.1964.182-.2806.26626l-4.90141 4.90137c-.08426.0842-.18488.1847-.26625.2806-.0943.1111-.21985.2797-.29543.5123-.09789.3013-.09789.6258 0 .927.07558.2327.20113.4013.29543.5124.08137.0958.18201.1964.26627.2806l4.90129 4.9013c.0842.0843.1848.1849.2807.2663.111.0943.2796.2198.5123.2954.3012.0979.6257.0979.927 0 .2326-.0756.4012-.2011.5123-.2954.0959-.0814.1964-.182.2806-.2663l4.9014-4.9013c.0842-.0842.1849-.1848.2662-.2806.0943-.1111.2199-.2797.2955-.5124.0979-.3012.0979-.6257 0-.927-.0756-.2326-.2012-.4012-.2955-.5123-.0813-.0959-.182-.1964-.2662-.2806l-4.9014-4.90137c-.0842-.08426-.1847-.18488-.2806-.26626z"/></g></svg>

<svg width="24" height="24" viewBox="0 0 24 24" fill="none" xmlns="http://www.w3.org/2000/svg">
<path d="M8.05476 3.91074C8.55115 3.66863 8.75729 3.06996 8.51519 2.57357C8.27308 2.07718 7.67441 1.87105 7.17802 2.11315C5.09015 3.13147 3.37825 4.78464 2.28768 6.8357C1.19711 8.88676 0.78386 11.2304 1.10716 13.5308C1.18402 14.0777 1.68969 14.4587 2.2366 14.3819C2.78351 14.305 3.16455 13.7994 3.08769 13.2524C2.82318 11.3703 3.16129 9.45278 4.05358 7.77464C4.94586 6.0965 6.3465 4.74391 8.05476 3.91074Z" fill="#801ED7"/>
<path d="M15.4849 2.57357C15.727 2.07718 16.3257 1.87105 16.8221 2.11315C18.91 3.13147 20.6219 4.78464 21.7124 6.8357C22.803 8.88676 23.2162 11.2304 22.8929 13.5308C22.8161 14.0777 22.3104 14.4587 21.7635 14.3819C21.2166 14.305 20.8356 13.7994 20.9124 13.2524C21.1769 11.3703 20.8388 9.45278 19.9465 7.77464C19.0542 6.0965 17.6536 4.74391 15.9453 3.91074C15.4489 3.66863 15.2428 3.06996 15.4849 2.57357Z" fill="#801ED7"/>
<path d="M5.31312 19.5026C5.63775 19.0558 6.26312 18.9568 6.70993 19.2814C8.24755 20.3985 10.0994 21.0002 12 21.0002C13.9006 21.0002 15.7524 20.3985 17.2901 19.2814C17.7369 18.9568 18.3622 19.0558 18.6869 19.5026C19.0115 19.9494 18.9124 20.5748 18.4656 20.8994C16.5863 22.2648 14.323 23.0002 12 23.0002C9.67702 23.0002 7.41368 22.2648 5.53436 20.8994C5.08755 20.5748 4.9885 19.9494 5.31312 19.5026Z" fill="#801ED7"/>
<path d="M12.9758 5.57587C12.8647 5.48158 12.6961 5.35603 12.4635 5.28045C12.1622 5.18256 11.8377 5.18256 11.5365 5.28045C11.3038 5.35603 11.1352 5.48158 11.0242 5.57587C10.9283 5.65725 10.8278 5.75787 10.7436 5.84213L5.84219 10.7435C5.75793 10.8277 5.65731 10.9282 5.57594 11.0241C5.48164 11.1352 5.35609 11.3038 5.28051 11.5364C5.18262 11.8377 5.18262 12.1622 5.28051 12.4634C5.35609 12.6961 5.48164 12.8647 5.57594 12.9758C5.65731 13.0716 5.75795 13.1722 5.84221 13.2564L10.7435 18.1577C10.8277 18.242 10.9283 18.3426 11.0242 18.424C11.1352 18.5183 11.3038 18.6438 11.5365 18.7194C11.8377 18.8173 12.1622 18.8173 12.4635 18.7194C12.6961 18.6438 12.8647 18.5183 12.9758 18.424C13.0717 18.3426 13.1722 18.242 13.2564 18.1577L18.1578 13.2564C18.242 13.1722 18.3427 13.0716 18.424 12.9758C18.5183 12.8647 18.6439 12.6961 18.7195 12.4634C18.8174 12.1622 18.8174 11.8377 18.7195 11.5364C18.6439 11.3038 18.5183 11.1352 18.424 11.0241C18.3427 10.9282 18.242 10.8277 18.1578 10.7435L13.2564 5.84213C13.1722 5.75787 13.0717 5.65725 12.9758 5.57587Z" fill="#801ED7"/>
</svg>
